svg/Octicons/tools.svg

<svg xmlns="http://www.w3.org/2000/svg" viewBox="0 0 1024 1024"><path d="m286.55 465.02c16.843 16.812 81.72 85.28 81.72 85.28l35.968-37.09-56.37-58.25 108.21-114.93c0 0-48.842-47.623-27.468-28.655 20.438-75.903 1.812-160.59-55.842-220.24-57.15-59.19-138.37-78.59-211.34-58.22l123.65 127.72-32.53 125.31-121.06 33.438-123.59-127.75c-19.718 75.44-.969 159.34 56.31 218.56 60.09 62.12 146.62 80.37 222.34 54.842m412.27 124.21l-149.12 147.31 245.93 254.81c20.06 20.812 46.5 31.19 72.872 31.19 26.25 0 52.624-10.375 72.811-31.19 40.25-41.624 40.25-109 0-150.62l-242.49-251.49m324.87-427.39l-156.62-161.84-461.67 477.3 56.37 58.25-276.33 285.62-63.15 33.749-89.22 145.56 22.719 23.562 140.84-92.25 32.655-65.31 276.34-285.55 56.4 58.25 461.67-477.33"/></svg>

<svg height="1024" width="1024" xmlns="http://www.w3.org/2000/svg">
  <path d="M286.547 465.016c16.843 16.812 81.716 85.279 81.716 85.279l35.968-37.093-56.373-58.248L456.072 340.02c0 0-48.842-47.623-27.468-28.655 20.438-75.903 1.812-160.589-55.842-220.243C315.608 31.936000000000035 234.392 12.529999999999973 161.425 32.903999999999996l123.653 127.715-32.53 125.309-121.06 33.438L7.898 191.61799999999994c-19.718 75.436-0.969 159.339 56.311 218.556C124.302 472.297 210.83 490.547 286.547 465.016zM698.815 589.231L549.694 736.539l245.932 254.805c20.062 20.812 46.498 31.188 72.872 31.188 26.25 0 52.624-10.375 72.811-31.188 40.249-41.624 40.249-108.997 0-150.62L698.815 589.231zM1023.681 161.83799999999997L867.06-0.0009999999999763531 405.387 477.297l56.373 58.248L185.425 821.161l-63.154 33.749-89.217 145.559 22.719 23.562 140.839-92.247 32.655-65.312 276.336-285.554 56.404 58.248L1023.681 161.83799999999997z" />
</svg>
